TV/Source/TV Vega - Dark.svg

<svg height="2.919942mm" viewBox="0 0 3.5054891 2.9199416" width="3.505489mm" xmlns="http://www.w3.org/2000/svg" xmlns:xlink="http://www.w3.org/1999/xlink"><clipPath id="a"><path d="m374.889 427.436h9.943v8.277h-9.943z"/></clipPath><g clip-path="url(#a)" transform="matrix(.35277777 0 0 -.35277777 -132.253426 153.70986)"><g transform="translate(379.3946 433.9695)"><path d="m0 0-.675-.006.721-.523.674 1.815c.105-.31.219-.73.358-1.067l1.386-.007c-.053.178-.044.222-.203.226-.321.006-.681.001-1.011.004l-.439 1.27-.224.032z" fill="#202983" fill-rule="evenodd"/></g><g transform="translate(379.0678 433.1702)"><path d="m0 0-.203-.637.726.517-1.537 1.195c.331.003.77-.02 1.136.007l.435 1.302c-.187.005-.227.028-.279-.121-.106-.301-.212-.641-.316-.951l-1.358-.02-.099-.201z" fill="#202983" fill-rule="evenodd"/></g><g transform="translate(379.7352 432.6156)"><path d="m0 0 .549-.388-.272.843-1.624-1.077c.1.312.257.718.345 1.072l-1.117.811c-.064-.174-.097-.205.03-.3.256-.193.55-.397.815-.591l-.4-1.284.163-.155z" fill="#202983" fill-rule="evenodd"/></g><g transform="translate(380.4745 433.0722)"><path d="m0 0 .543.397-.895.004.533-1.86c-.269.19-.61.464-.923.655l-1.125-.8c.148-.114.167-.155.298-.065.264.182.552.395.82.585l1.11-.773.2.105z" fill="#202983" fill-rule="evenodd"/></g><g transform="translate(380.2641 433.909)"><path d="m0 0-.214.633-.28-.84 1.953-.073c-.266-.195-.635-.431-.915-.667l.421-1.306c.155.105.2.11.154.261-.092.304-.209.641-.308.952l1.086.806-.039.22z" fill="#202983" fill-rule="evenodd"/></g><g transform="translate(376.5077 427.581)"><path d="m0 0c-.007-.024-.016-.044-.027-.058-.012-.015-.03-.026-.056-.034-.025-.008-.06-.013-.104-.015-.044-.003-.101-.003-.172-.003-.057 0-.105 0-.146 0-.04.001-.074.003-.103.006-.028.003-.051.008-.069.013s-.032.013-.045.021c-.011.008-.021.019-.027.031-.007.012-.013.027-.018.046l-.818 2.438c-.016.051-.027.091-.03.121-.004.03.003.052.021.067.017.015.048.024.09.028.043.004.102.005.179.005.065 0 .116-.001.153-.004s.065-.008.085-.015c.019-.007.034-.018.041-.032.008-.014.015-.032.023-.053l.668-2.122h.002l.657 2.111c.006.024.013.044.021.058.009.016.023.027.044.036.02.008.05.014.089.017.037.003.09.004.157.004.065 0 .116-.002.152-.006.037-.005.061-.015.075-.031.013-.017.017-.04.012-.07-.004-.029-.016-.068-.032-.118zm2.831.123c0-.042-.001-.076-.005-.104-.003-.028-.008-.05-.016-.067-.007-.017-.016-.03-.026-.038-.011-.008-.023-.011-.035-.011h-1.38c-.046 0-.085.014-.117.041-.032.028-.048.073-.048.135v2.398c0 .062.016.107.048.135.032.027.071.041.117.041h1.373c.013 0 .024-.004.034-.011s.018-.019.026-.037c.006-.018.012-.04.016-.068.003-.028.005-.063.005-.106 0-.04-.002-.073-.005-.101-.004-.028-.009-.05-.016-.067-.008-.018-.016-.03-.026-.038s-.021-.011-.034-.011h-.981v-.671h.827c.013 0 .024-.003.035-.011.01-.008.019-.02.026-.037.008-.015.013-.037.016-.066.004-.027.005-.06.005-.1 0-.041-.001-.075-.005-.102-.003-.027-.008-.048-.016-.064-.007-.017-.016-.029-.026-.035-.011-.007-.022-.011-.035-.011h-.827v-.775h.988c.013 0 .024-.003.035-.011.01-.008.019-.021.026-.038.008-.017.013-.039.016-.067.004-.028.005-.062.005-.103m2.638 2.102c0-.041-.001-.076-.005-.106-.003-.03-.009-.053-.015-.071-.007-.018-.014-.03-.023-.037-.01-.007-.021-.011-.033-.011-.019 0-.049.013-.089.039-.041.025-.096.053-.164.083s-.149.058-.243.084c-.094.025-.204.038-.329.038-.132 0-.253-.023-.36-.069-.108-.046-.2-.112-.276-.196-.077-.085-.135-.185-.177-.304-.041-.119-.061-.249-.061-.393 0-.157.021-.296.062-.416.042-.12.101-.22.176-.301s.166-.141.271-.183c.106-.041.223-.061.349-.061.063 0 .124.007.185.021.062.014.119.036.171.064v.641h-.52c-.026 0-.045.016-.06.048-.013.032-.021.086-.021.163 0 .039.002.072.005.099.004.027.01.049.016.065.008.016.016.028.026.036s.021.011.034.011h.928c.023 0 .043-.003.06-.011.019-.008.034-.02.047-.036.014-.015.024-.034.031-.056s.011-.047.011-.076v-1.096c0-.043-.007-.08-.023-.112-.014-.032-.045-.057-.091-.075-.046-.019-.103-.038-.171-.058s-.139-.038-.212-.051c-.072-.015-.146-.026-.221-.032-.074-.007-.149-.011-.224-.011-.22 0-.417.032-.591.095-.173.063-.32.154-.441.274-.12.12-.212.266-.276.438-.064.173-.096.368-.096.586 0 .226.034.428.103.607.067.18.164.332.288.458.125.125.275.221.452.288.176.066.373.1.589.1.12 0 .228-.008.326-.025.097-.016.182-.036.256-.06.072-.023.133-.049.181-.075.049-.028.082-.051.101-.072.019-.019.033-.047.041-.084.009-.035.013-.089.013-.16m2.819-2.114c.016-.051.027-.091.031-.121.005-.03-.001-.052-.016-.068-.016-.014-.044-.024-.084-.027-.039-.004-.094-.005-.163-.005-.072 0-.129 0-.169.003-.04.002-.071.006-.093.013-.021.006-.035.015-.044.027-.009.01-.016.026-.021.044l-.18.552h-1.038l-.173-.537c-.006-.02-.013-.037-.022-.05-.009-.014-.024-.024-.045-.032-.02-.008-.049-.013-.087-.016-.037-.003-.087-.004-.148-.004-.065 0-.116.002-.153.006-.037.005-.062.015-.076.031s-.019.04-.015.069c.004.03.015.069.032.119l.847 2.441c.008.024.018.043.03.058.011.015.029.026.053.034.026.008.06.013.104.015s.102.003.174.003c.084 0 .15-.001.2-.003s.088-.007.116-.015c.027-.008.047-.02.059-.035.012-.016.023-.037.031-.064zm-1.262 2.019h-.003l-.382-1.17h.771z" fill="#202983" fill-rule="evenodd"/></g></g></svg>

<?xml version="1.0" encoding="UTF-8" standalone="no"?>
<!-- Created with Inkscape (http://www.inkscape.org/) -->

<svg
   xmlns:dc="http://purl.org/dc/elements/1.1/"
   xmlns:cc="http://creativecommons.org/ns#"
   xmlns:rdf="http://www.w3.org/1999/02/22-rdf-syntax-ns#"
   xmlns:svg="http://www.w3.org/2000/svg"
   xmlns="http://www.w3.org/2000/svg"
   xmlns:sodipodi="http://sodipodi.sourceforge.net/DTD/sodipodi-0.dtd"
   xmlns:inkscape="http://www.inkscape.org/namespaces/inkscape"
   width="3.5054891mm"
   height="2.9199417mm"
   viewBox="0 0 3.5054891 2.9199416"
   version="1.1"
   id="svg57359"
   inkscape:version="0.92.0 r15299"
   sodipodi:docname="TV Vega - Dark.svg">
  <defs
     id="defs57353">
    <clipPath
       clipPathUnits="userSpaceOnUse"
       id="clipPath21416">
      <path
         d="m 372.123,460.03 h 15.475 v 7.72 h -15.475 z"
         id="path21414"
         inkscape:connector-curvature="0" />
    </clipPath>
    <clipPath
       clipPathUnits="userSpaceOnUse"
       id="clipPath22560">
      <path
         d="m 371.508,444.753 h 16.703 v 5.959 h -16.703 z"
         id="path22558"
         inkscape:connector-curvature="0" />
    </clipPath>
    <clipPath
       clipPathUnits="userSpaceOnUse"
       id="clipPath22854">
      <path
         d="m 374.889,427.436 h 9.943 v 8.277 h -9.943 z"
         id="path22852"
         inkscape:connector-curvature="0" />
    </clipPath>
  </defs>
  <sodipodi:namedview
     id="base"
     pagecolor="#ffffff"
     bordercolor="#666666"
     borderopacity="1.0"
     inkscape:pageopacity="0.0"
     inkscape:pageshadow="2"
     inkscape:zoom="31.678384"
     inkscape:cx="6.1966362"
     inkscape:cy="4.8002645"
     inkscape:document-units="mm"
     inkscape:current-layer="layer1"
     showgrid="false"
     fit-margin-top="0"
     fit-margin-left="0"
     fit-margin-right="0"
     fit-margin-bottom="0"
     inkscape:window-width="1920"
     inkscape:window-height="1017"
     inkscape:window-x="-8"
     inkscape:window-y="-8"
     inkscape:window-maximized="1" />
  <metadata
     id="metadata57356">
    <rdf:RDF>
      <cc:Work
         rdf:about="">
        <dc:format>image/svg+xml</dc:format>
        <dc:type
           rdf:resource="http://purl.org/dc/dcmitype/StillImage" />
        <dc:title></dc:title>
      </cc:Work>
    </rdf:RDF>
  </metadata>
  <g
     inkscape:label="Layer 1"
     inkscape:groupmode="layer"
     id="layer1"
     transform="translate(18.694984,-145.37637)">
    <g
       transform="matrix(0.35277777,0,0,-0.35277777,-150.94841,299.08623)"
       id="g22848">
      <g
         id="g22850"
         clip-path="url(#clipPath22854)">
        <g
           id="g22856"
           transform="translate(379.3946,433.9695)">
          <path
             d="M 0,0 -0.675,-0.006 0.046,-0.529 0.72,1.286 C 0.825,0.976 0.939,0.556 1.078,0.219 L 2.464,0.212 C 2.411,0.39 2.42,0.434 2.261,0.438 1.94,0.444 1.58,0.439 1.25,0.442 L 0.811,1.712 0.587,1.744 Z"
             style="fill:#202983;fill-opacity:1;fill-rule:evenodd;stroke:none"
             id="path22858"
             inkscape:connector-curvature="0" />
        </g>
        <g
           id="g22860"
           transform="translate(379.0678,433.1702)">
          <path
             d="m 0,0 -0.203,-0.637 0.726,0.517 -1.537,1.195 c 0.331,0.003 0.77,-0.02 1.136,0.007 L 0.557,2.384 C 0.37,2.389 0.33,2.412 0.278,2.263 0.172,1.962 0.066,1.622 -0.038,1.312 L -1.396,1.292 -1.495,1.091 Z"
             style="fill:#202983;fill-opacity:1;fill-rule:evenodd;stroke:none"
             id="path22862"
             inkscape:connector-curvature="0" />
        </g>
        <g
           id="g22864"
           transform="translate(379.7352,432.6156)">
          <path
             d="M 0,0 0.549,-0.388 0.277,0.455 -1.347,-0.622 c 0.1,0.312 0.257,0.718 0.345,1.072 l -1.117,0.811 c -0.064,-0.174 -0.097,-0.205 0.03,-0.3 0.256,-0.193 0.55,-0.397 0.815,-0.591 l -0.4,-1.284 0.163,-0.155 z"
             style="fill:#202983;fill-opacity:1;fill-rule:evenodd;stroke:none"
             id="path22866"
             inkscape:connector-curvature="0" />
        </g>
        <g
           id="g22868"
           transform="translate(380.4745,433.0722)">
          <path
             d="m 0,0 0.543,0.397 -0.895,0.004 0.533,-1.86 c -0.269,0.19 -0.61,0.464 -0.923,0.655 l -1.125,-0.8 c 0.148,-0.114 0.167,-0.155 0.298,-0.065 0.264,0.182 0.552,0.395 0.82,0.585 l 1.11,-0.773 0.2,0.105 z"
             style="fill:#202983;fill-opacity:1;fill-rule:evenodd;stroke:none"
             id="path22870"
             inkscape:connector-curvature="0" />
        </g>
        <g
           id="g22872"
           transform="translate(380.2641,433.909)">
          <path
             d="m 0,0 -0.214,0.633 -0.28,-0.84 1.953,-0.073 C 1.193,-0.475 0.824,-0.711 0.544,-0.947 l 0.421,-1.306 c 0.155,0.105 0.2,0.11 0.154,0.261 -0.092,0.304 -0.209,0.641 -0.308,0.952 l 1.086,0.806 -0.039,0.22 z"
             style="fill:#202983;fill-opacity:1;fill-rule:evenodd;stroke:none"
             id="path22874"
             inkscape:connector-curvature="0" />
        </g>
        <g
           id="g22876"
           transform="translate(376.5077,427.581)">
          <path
             d="M 0,0 C -0.007,-0.024 -0.016,-0.044 -0.027,-0.058 -0.039,-0.073 -0.057,-0.084 -0.083,-0.092 -0.108,-0.1 -0.143,-0.105 -0.187,-0.107 -0.231,-0.11 -0.288,-0.11 -0.359,-0.11 c -0.057,0 -0.105,0 -0.146,0 -0.04,0.001 -0.074,0.003 -0.103,0.006 -0.028,0.003 -0.051,0.008 -0.069,0.013 -0.018,0.005 -0.032,0.013 -0.045,0.021 -0.011,0.008 -0.021,0.019 -0.027,0.031 -0.007,0.012 -0.013,0.027 -0.018,0.046 l -0.818,2.438 c -0.016,0.051 -0.027,0.091 -0.03,0.121 -0.004,0.03 0.003,0.052 0.021,0.067 0.017,0.015 0.048,0.024 0.09,0.028 0.043,0.004 0.102,0.005 0.179,0.005 0.065,0 0.116,-10e-4 0.153,-0.004 0.037,-0.003 0.065,-0.008 0.085,-0.015 0.019,-0.007 0.034,-0.018 0.041,-0.032 0.008,-0.014 0.015,-0.032 0.023,-0.053 L -0.355,0.44 h 0.002 L 0.304,2.551 C 0.31,2.575 0.317,2.595 0.325,2.609 0.334,2.625 0.348,2.636 0.369,2.645 0.389,2.653 0.419,2.659 0.458,2.662 0.495,2.665 0.548,2.666 0.615,2.666 0.68,2.666 0.731,2.664 0.767,2.66 0.804,2.655 0.828,2.645 0.842,2.629 0.855,2.612 0.859,2.589 0.854,2.559 0.85,2.53 0.838,2.491 0.822,2.441 Z M 2.831,0.123 C 2.831,0.081 2.83,0.047 2.826,0.019 2.823,-0.009 2.818,-0.031 2.81,-0.048 2.803,-0.065 2.794,-0.078 2.784,-0.086 2.773,-0.094 2.761,-0.097 2.749,-0.097 h -1.38 c -0.046,0 -0.085,0.014 -0.117,0.041 C 1.22,-0.028 1.204,0.017 1.204,0.079 v 2.398 c 0,0.062 0.016,0.107 0.048,0.135 0.032,0.027 0.071,0.041 0.117,0.041 H 2.742 C 2.755,2.653 2.766,2.649 2.776,2.642 2.786,2.635 2.794,2.623 2.802,2.605 2.808,2.587 2.814,2.565 2.818,2.537 2.821,2.509 2.823,2.474 2.823,2.431 2.823,2.391 2.821,2.358 2.818,2.33 2.814,2.302 2.809,2.28 2.802,2.263 2.794,2.245 2.786,2.233 2.776,2.225 2.766,2.217 2.755,2.214 2.742,2.214 H 1.761 V 1.543 H 2.588 C 2.601,1.543 2.612,1.54 2.623,1.532 2.633,1.524 2.642,1.512 2.649,1.495 2.657,1.48 2.662,1.458 2.665,1.429 2.669,1.402 2.67,1.369 2.67,1.329 2.67,1.288 2.669,1.254 2.665,1.227 2.662,1.2 2.657,1.179 2.649,1.163 2.642,1.146 2.633,1.134 2.623,1.128 2.612,1.121 2.601,1.117 2.588,1.117 H 1.761 V 0.342 H 2.749 C 2.762,0.342 2.773,0.339 2.784,0.331 2.794,0.323 2.803,0.31 2.81,0.293 2.818,0.276 2.823,0.254 2.826,0.226 2.83,0.198 2.831,0.164 2.831,0.123 M 5.469,2.225 C 5.469,2.184 5.468,2.149 5.464,2.119 5.461,2.089 5.455,2.066 5.449,2.048 5.442,2.03 5.435,2.018 5.426,2.011 5.416,2.004 5.405,2 5.393,2 5.374,2 5.344,2.013 5.304,2.039 5.263,2.064 5.208,2.092 5.14,2.122 5.072,2.152 4.991,2.18 4.897,2.206 4.803,2.231 4.693,2.244 4.568,2.244 4.436,2.244 4.315,2.221 4.208,2.175 4.1,2.129 4.008,2.063 3.932,1.979 3.855,1.894 3.797,1.794 3.755,1.675 3.714,1.556 3.694,1.426 3.694,1.282 3.694,1.125 3.715,0.986 3.756,0.866 3.798,0.746 3.857,0.646 3.932,0.565 4.007,0.484 4.098,0.424 4.203,0.382 4.309,0.341 4.426,0.321 4.552,0.321 c 0.063,0 0.124,0.007 0.185,0.021 0.062,0.014 0.119,0.036 0.171,0.064 v 0.641 h -0.52 c -0.026,0 -0.045,0.016 -0.06,0.048 -0.013,0.032 -0.021,0.086 -0.021,0.163 0,0.039 0.002,0.072 0.005,0.099 0.004,0.027 0.01,0.049 0.016,0.065 0.008,0.016 0.016,0.028 0.026,0.036 0.01,0.008 0.021,0.011 0.034,0.011 h 0.928 c 0.023,0 0.043,-0.003 0.06,-0.011 C 5.395,1.45 5.41,1.438 5.423,1.422 5.437,1.407 5.447,1.388 5.454,1.366 5.461,1.344 5.465,1.319 5.465,1.29 V 0.194 C 5.465,0.151 5.458,0.114 5.442,0.082 5.428,0.05 5.397,0.025 5.351,0.007 5.305,-0.012 5.248,-0.031 5.18,-0.051 5.112,-0.071 5.041,-0.089 4.968,-0.102 4.896,-0.117 4.822,-0.128 4.747,-0.134 4.673,-0.141 4.598,-0.145 4.523,-0.145 4.303,-0.145 4.106,-0.113 3.932,-0.05 3.759,0.013 3.612,0.104 3.491,0.224 3.371,0.344 3.279,0.49 3.215,0.662 3.151,0.835 3.119,1.03 3.119,1.248 c 0,0.226 0.034,0.428 0.103,0.607 0.067,0.18 0.164,0.332 0.288,0.458 0.125,0.125 0.275,0.221 0.452,0.288 0.176,0.066 0.373,0.1 0.589,0.1 0.12,0 0.228,-0.008 0.326,-0.025 C 4.974,2.66 5.059,2.64 5.133,2.616 5.205,2.593 5.266,2.567 5.314,2.541 5.363,2.513 5.396,2.49 5.415,2.469 5.434,2.45 5.448,2.422 5.456,2.385 5.465,2.35 5.469,2.296 5.469,2.225 M 8.288,0.111 C 8.304,0.06 8.315,0.02 8.319,-0.01 8.324,-0.04 8.318,-0.062 8.303,-0.078 8.287,-0.092 8.259,-0.102 8.219,-0.105 8.18,-0.109 8.125,-0.11 8.056,-0.11 c -0.072,0 -0.129,0 -0.169,0.003 -0.04,0.002 -0.071,0.006 -0.093,0.013 -0.021,0.006 -0.035,0.015 -0.044,0.027 -0.009,0.01 -0.016,0.026 -0.021,0.044 L 7.549,0.529 H 6.511 L 6.338,-0.008 C 6.332,-0.028 6.325,-0.045 6.316,-0.058 6.307,-0.072 6.292,-0.082 6.271,-0.09 6.251,-0.098 6.222,-0.103 6.184,-0.106 6.147,-0.109 6.097,-0.11 6.036,-0.11 c -0.065,0 -0.116,0.002 -0.153,0.006 -0.037,0.005 -0.062,0.015 -0.076,0.031 -0.014,0.016 -0.019,0.04 -0.015,0.069 0.004,0.03 0.015,0.069 0.032,0.119 L 6.671,2.556 C 6.679,2.58 6.689,2.599 6.701,2.614 6.712,2.629 6.73,2.64 6.754,2.648 6.78,2.656 6.814,2.661 6.858,2.663 6.902,2.665 6.96,2.666 7.032,2.666 c 0.084,0 0.15,-10e-4 0.2,-0.003 C 7.282,2.661 7.32,2.656 7.348,2.648 7.375,2.64 7.395,2.628 7.407,2.613 7.419,2.597 7.43,2.576 7.438,2.549 Z M 7.026,2.13 H 7.023 L 6.641,0.96 h 0.771 z"
             style="fill:#202983;fill-opacity:1;fill-rule:evenodd;stroke:none"
             id="path22878"
             inkscape:connector-curvature="0" />
        </g>
      </g>
    </g>
  </g>
</svg>
